packages/design-system/src/icons/assets/ic_float_edit_lime_24.svg

<svg width="24" height="24" viewBox="0 0 24 24" fill="none" xmlns="http://www.w3.org/2000/svg">
<path d="M6 15.6403V17.6667C6 17.8534 6.14665 18 6.33329 18H8.35967C8.44633 18 8.53298 17.9667 8.59297 17.9L15.872 10.6277L13.3723 8.12804L6.09999 15.4004C6.03333 15.467 6 15.547 6 15.6403ZM17.805 8.69463C18.065 8.43466 18.065 8.01472 17.805 7.75476L16.2452 6.19497C15.9853 5.93501 15.5653 5.93501 15.3054 6.19497L14.0855 7.4148L16.5852 9.91446L17.805 8.69463Z" fill="#E9FFAC"/>
</svg>

<svg xmlns="http://www.w3.org/2000/svg" width="24" height="24" fill="none"><path fill="#E9FFAC" d="M6 15.64v2.027a.33.33 0 0 0 .333.333H8.36a.3.3 0 0 0 .233-.1l7.279-7.272-2.5-2.5L6.1 15.4a.33.33 0 0 0-.1.24m11.805-6.945c.26-.26.26-.68 0-.94l-1.56-1.56a.664.664 0 0 0-.94 0l-1.22 1.22 2.5 2.5z"/></svg>
